img/svg/google.svg

<svg width="25" height="25" viewBox="0 0 25 25" fill="none" xmlns="http://www.w3.org/2000/svg">
<g clip-path="url(#clip0_2035_8262)">
<path d="M8.86104 0.812382C6.46307 1.64426 4.39506 3.22319 2.96077 5.31726C1.52649 7.41133 0.801526 9.91015 0.892371 12.4467C0.983217 14.9832 1.88508 17.4238 3.4655 19.4099C5.04591 21.396 7.22158 22.8229 9.67292 23.4811C11.6603 23.9939 13.7424 24.0165 15.7404 23.5468C17.5504 23.1402 19.2238 22.2706 20.5967 21.023C22.0256 19.6849 23.0627 17.9827 23.5967 16.0993C24.177 14.0511 24.2803 11.8973 23.8985 9.80301H12.7385V14.4324H19.2017C19.0725 15.1707 18.7957 15.8754 18.3878 16.5043C17.98 17.1332 17.4494 17.6733 16.8279 18.0924C16.0387 18.6144 15.149 18.9657 14.216 19.1236C13.2803 19.2976 12.3205 19.2976 11.3848 19.1236C10.4364 18.9275 9.53923 18.5361 8.75042 17.9743C7.4832 17.0772 6.53168 15.8029 6.03167 14.333C5.52319 12.8356 5.52319 11.2123 6.03167 9.71488C6.38759 8.66529 6.97598 7.70964 7.75292 6.91926C8.64203 5.99816 9.76766 5.33975 11.0063 5.01627C12.245 4.6928 13.5488 4.71675 14.7748 5.08551C15.7325 5.37949 16.6083 5.89314 17.3323 6.58551C18.061 5.86051 18.7885 5.13363 19.5148 4.40488C19.8898 4.01301 20.2985 3.63988 20.6679 3.23863C19.5627 2.21015 18.2654 1.40986 16.8504 0.883632C14.2736 -0.0520123 11.4541 -0.0771569 8.86104 0.812382Z" fill="white"/>
<path d="M8.8607 0.813293C11.4536 -0.0768503 14.2731 -0.0523676 16.8501 0.882668C18.2654 1.41247 19.562 2.21661 20.6657 3.24892C20.2907 3.65017 19.8951 4.02517 19.5126 4.41517C18.7851 5.14142 18.0582 5.86517 17.332 6.58642C16.6079 5.89405 15.7321 5.3804 14.7745 5.08642C13.5489 4.71637 12.2451 4.69103 11.0061 5.01319C9.76712 5.33534 8.64079 5.99253 7.7507 6.91267C6.97377 7.70305 6.38538 8.6587 6.02945 9.70829L2.14258 6.69892C3.53384 3.93997 5.94273 1.82959 8.8607 0.813293Z" fill="#E33629"/>
<path d="M1.1114 9.67949C1.32032 8.64411 1.66716 7.64142 2.14265 6.69824L6.02953 9.71512C5.52105 11.2125 5.52105 12.8359 6.02953 14.3332C4.73453 15.3332 3.4389 16.3382 2.14265 17.3482C0.952308 14.9788 0.589275 12.2792 1.1114 9.67949Z" fill="#F8BD00"/>
<path d="M12.7381 9.80176H23.8981C24.2799 11.896 24.1766 14.0499 23.5963 16.098C23.0623 17.9814 22.0252 19.6837 20.5963 21.0218C19.3419 20.043 18.0819 19.0718 16.8275 18.093C17.4494 17.6735 17.9802 17.1328 18.3881 16.5033C18.796 15.8737 19.0726 15.1683 19.2013 14.4293H12.7381C12.7363 12.888 12.7381 11.3449 12.7381 9.80176Z" fill="#587DBD"/>
<path d="M2.14062 17.348C3.43687 16.348 4.7325 15.343 6.0275 14.333C6.52851 15.8034 7.48138 17.0778 8.75 17.9743C9.54127 18.5335 10.4404 18.9218 11.39 19.1143C12.3257 19.2882 13.2855 19.2882 14.2213 19.1143C15.1542 18.9563 16.0439 18.6051 16.8331 18.083C18.0875 19.0618 19.3475 20.033 20.6019 21.0118C19.2292 22.26 17.5558 23.1303 15.7456 23.5374C13.7476 24.0071 11.6655 23.9846 9.67813 23.4718C8.10632 23.0521 6.63814 22.3122 5.36563 21.2986C4.01874 20.2293 2.91867 18.8817 2.14062 17.348Z" fill="#319F43"/>
</g>
<defs>
<clipPath id="clip0_2035_8262">
<rect width="24" height="24" fill="white" transform="translate(0.5 0.0234375)"/>
</clipPath>
</defs>
</svg>

<?xml version="1.0" encoding="utf-8"?><svg width="25" height="25" fill="none" xmlns="http://www.w3.org/2000/svg" viewBox="0 0 25 25"><g clip-path="url(#apa)"><path d="M8.861.812a11.865 11.865 0 0 0 .812 22.67c1.987.512 4.07.535 6.067.065a10.712 10.712 0 0 0 4.857-2.524 10.77 10.77 0 0 0 3-4.924c.58-2.048.683-4.202.301-6.296h-11.16v4.63h6.464a5.573 5.573 0 0 1-2.374 3.66 6.788 6.788 0 0 1-2.612 1.03 7.743 7.743 0 0 1-2.831 0 6.976 6.976 0 0 1-2.635-1.149 7.369 7.369 0 0 1-2.718-3.641 7.181 7.181 0 0 1 0-4.618 7.36 7.36 0 0 1 1.72-2.796 6.97 6.97 0 0 1 7.023-1.833 6.43 6.43 0 0 1 2.557 1.5c.729-.725 1.456-1.452 2.183-2.181.375-.392.784-.765 1.153-1.166A11.475 11.475 0 0 0 16.85.884 12 12 0 0 0 8.861.812Z" fill="#fff"/><path d="M8.86.813a12 12 0 0 1 7.99.07 11.475 11.475 0 0 1 3.816 2.366c-.375.401-.77.776-1.153 1.166-.728.726-1.455 1.45-2.181 2.171a6.432 6.432 0 0 0-2.558-1.5 6.97 6.97 0 0 0-7.023 1.827 7.36 7.36 0 0 0-1.722 2.795l-3.886-3.01A11.912 11.912 0 0 1 8.86.814Z" fill="#E33629"/><path d="M1.111 9.68a11.813 11.813 0 0 1 1.032-2.982L6.03 9.715a7.181 7.181 0 0 0 0 4.618c-1.295 1-2.591 2.005-3.887 3.015A11.874 11.874 0 0 1 1.11 9.68Z" fill="#F8BD00"/><path d="M12.738 9.802h11.16a13.931 13.931 0 0 1-.302 6.296 10.77 10.77 0 0 1-3 4.924c-1.254-.979-2.514-1.95-3.768-2.929a5.573 5.573 0 0 0 2.373-3.664h-6.463c-.002-1.541 0-3.084 0-4.627Z" fill="#587DBD"/><path d="M2.14 17.348c1.297-1 2.592-2.005 3.887-3.015a7.369 7.369 0 0 0 2.723 3.641c.791.56 1.69.948 2.64 1.14a7.748 7.748 0 0 0 2.831 0 6.788 6.788 0 0 0 2.612-1.031c1.255.979 2.515 1.95 3.769 2.929a10.712 10.712 0 0 1-4.856 2.525c-1.998.47-4.08.448-6.068-.065a11.813 11.813 0 0 1-4.312-2.173 11.943 11.943 0 0 1-3.225-3.951Z" fill="#319F43"/></g><defs><clipPath id="apa"><path fill="#fff" transform="translate(.5 .023)" d="M0 0h24v24H0z"/></clipPath></defs></svg>
